tgui/packages/tgfont/icons/prosthetic-full.svg

<?xml version="1.0" encoding="UTF-8" standalone="no"?>
<svg
   xmlns:dc="http://purl.org/dc/elements/1.1/"
   xmlns:cc="http://creativecommons.org/ns#"
   xmlns:rdf="http://www.w3.org/1999/02/22-rdf-syntax-ns#"
   xmlns:svg="http://www.w3.org/2000/svg"
   xmlns="http://www.w3.org/2000/svg"
   version="1.1"
   id="Layer_1"
   x="0px"
   y="0px"
   viewBox="0 0 1077.457 1380.7793"
   xml:space="preserve"
   width="1077.457"
   height="1380.7793"><metadata
   id="metadata7"><rdf:RDF><cc:Work
       rdf:about=""><dc:format>image/svg+xml</dc:format><dc:type
         rdf:resource="http://purl.org/dc/dcmitype/StillImage" /><dc:title></dc:title></cc:Work></rdf:RDF></metadata><defs
   id="defs6565" />

<g
   id="layer1"
   style="display:inline"
   transform="translate(288.72852,599.71289)"><path
     id="rect7608"
     style="fill:#000000;fill-opacity:1;stroke:#000000;stroke-width:50;stroke-linecap:butt;stroke-linejoin:round;stroke-miterlimit:20;stroke-dasharray:none;stroke-dashoffset:0;paint-order:normal"
     d="M 250,-574.71289 A 222.22223,222.22223 0 0 0 27.777344,-352.49023 222.22223,222.22223 0 0 0 250,-130.26758 222.22223,222.22223 0 0 0 472.22266,-352.49023 222.22223,222.22223 0 0 0 250,-574.71289 Z m -469.49805,528.736328 c -24.50365,0 -44.23047,19.726819 -44.23047,44.2304682 V 78.375 c 0,24.50365 19.72682,44.23047 44.23047,44.23047 H -1.5039062 v 421.625 3.0332 164.57227 c 0,24.50365 19.7268202,44.23047 44.2304682,44.23047 H 161.16211 c 24.50365,0 44.23047,-19.72682 44.23047,-44.23047 v -120.3418 h 87.71094 v 120.3418 c 0,24.50365 19.72682,44.23047 44.23046,44.23047 H 455.76953 C 480.27318,756.06641 500,736.33959 500,711.83594 v -164.57227 -3.0332 -421.625 h 219.49805 c 24.50365,0 44.23047,-19.72682 44.23047,-44.23047 V -1.7460938 c 0,-24.5036492 -19.72682,-44.2304682 -44.23047,-44.2304682 z" /></g></svg>

<?xml version="1.0" encoding="UTF-8" standalone="no"?>
<!-- Generator: Adobe Illustrator 23.0.1, SVG Export Plug-In . SVG Version: 6.00 Build 0)  -->

<svg
   version="1.1"
   id="Layer_1"
   x="0px"
   y="0px"
   viewBox="0 0 500 500"
   style="enable-background:new 0 0 500 500;"
   xml:space="preserve"
   sodipodi:docname="prosthetic-full.svg"
   inkscape:version="1.2.1 (9c6d41e410, 2022-07-14)"
   xmlns:inkscape="http://www.inkscape.org/namespaces/inkscape"
   xmlns:sodipodi="http://sodipodi.sourceforge.net/DTD/sodipodi-0.dtd"
   xmlns="http://www.w3.org/2000/svg"
   xmlns:svg="http://www.w3.org/2000/svg"><defs
   id="defs6565" /><sodipodi:namedview
   id="namedview6563"
   pagecolor="#505050"
   bordercolor="#eeeeee"
   borderopacity="1"
   inkscape:showpageshadow="0"
   inkscape:pageopacity="0"
   inkscape:pagecheckerboard="0"
   inkscape:deskcolor="#505050"
   showgrid="false"
   inkscape:zoom="0.3915"
   inkscape:cx="-39.591315"
   inkscape:cy="367.81609"
   inkscape:window-width="1842"
   inkscape:window-height="963"
   inkscape:window-x="-8"
   inkscape:window-y="-8"
   inkscape:window-maximized="1"
   inkscape:current-layer="Layer_1" />

<g
   inkscape:groupmode="layer"
   id="layer1"
   inkscape:label="Layer 1"
   style="display:inline"><path
     id="rect7608"
     style="fill:#000000;fill-opacity:1;stroke:#000000;stroke-width:50;stroke-linecap:butt;stroke-linejoin:round;stroke-miterlimit:20;stroke-dasharray:none;stroke-dashoffset:0;paint-order:normal"
     d="M 250 -574.71289 A 222.22223 222.22223 0 0 0 27.777344 -352.49023 A 222.22223 222.22223 0 0 0 250 -130.26758 A 222.22223 222.22223 0 0 0 472.22266 -352.49023 A 222.22223 222.22223 0 0 0 250 -574.71289 z M -219.49805 -45.976562 C -244.0017 -45.976562 -263.72852 -26.249743 -263.72852 -1.7460938 L -263.72852 78.375 C -263.72852 102.87865 -244.0017 122.60547 -219.49805 122.60547 L -1.5039062 122.60547 L -1.5039062 544.23047 L -1.5039062 547.26367 L -1.5039062 711.83594 C -1.5039062 736.33959 18.222914 756.06641 42.726562 756.06641 L 161.16211 756.06641 C 185.66576 756.06641 205.39258 736.33959 205.39258 711.83594 L 205.39258 591.49414 L 293.10352 591.49414 L 293.10352 711.83594 C 293.10352 736.33959 312.83034 756.06641 337.33398 756.06641 L 455.76953 756.06641 C 480.27318 756.06641 500 736.33959 500 711.83594 L 500 547.26367 L 500 544.23047 L 500 122.60547 L 719.49805 122.60547 C 744.0017 122.60547 763.72852 102.87865 763.72852 78.375 L 763.72852 -1.7460938 C 763.72852 -26.249743 744.0017 -45.976562 719.49805 -45.976562 L -219.49805 -45.976562 z " /></g></svg>
